X:183
M:C
L:1/8
K:D
g|f>ed>e d/d/d f2|d>ef>d e<E E>g|f>ed>e d/d/d f2|B<d A>G F<D D>g|
f>e d<e d/d/d f2|d>ef>d e<E E>g|f<b e>f d>ef>e|B<d A>G F<DD/||

